ui/StatusQ/src/assets/img/icons/animals-and-nature.svg

<svg fill="none" height="24" viewBox="0 0 24 24" width="24" xmlns="http://www.w3.org/2000/svg"><path clip-rule="evenodd" d="m4.67443 18.3332c.03439-.1575-.00611-.3214-.10615-.4477-1.46905-1.8552-2.57726-5.4835-.12683-8.83713 4.00329-5.47889 14.31155-8.218312 15.96295-6.57463 1.6513 1.64368 0 11.70476-6.6054 15.88866-3.0235 1.9151-5.39746 1.9263-7.10681 1.1708-.32404-.1432-.71852.0368-.75599.3891-.04572.4297-.06938.8721-.06938 1.3278 0 .4142-.33578.75-.75.75-.41421 0-.75-.3358-.75-.75 0-1.0331.10808-2.0036.30761-2.9169zm.97816-8.39988c1.74887-2.39349 5.00511-4.31323 8.15351-5.42945 1.5537-.55083 2.9961-.87494 4.1022-.97255.556-.04906.9775-.03631 1.2631.00942.108.01729.1943.09634.2206.20253.0036.01442.0072.02957.0108.04546.0652.28736.1066.70292.0954 1.24148-.0224 1.07336-.2498 2.47243-.7296 3.98049-.9674 3.0403-2.867 6.2443-5.7722 8.0845-1.8956 1.2007-3.36091 1.4811-4.42937 1.3883-.73092-.0634-1.3528-.3079-1.87041-.6534-.17293-.1154-.23804-.3351-.1687-.5311 1.49941-4.2382 5.33168-7.067 9.22958-9.40577.3552-.21311.4704-.6738.2573-1.02899-.2131-.35518-.6738-.47036-1.029-.25725-3.4974 2.09844-7.29694 4.78091-9.26525 8.75211-.18547.3742-.71181.3995-.85463.0071-.55474-1.5243-.59949-3.5358.78667-5.43288z" fill="#000" fill-rule="evenodd"/></svg>

<svg width="24" height="24" viewBox="0 0 24 24" fill="none" xmlns="http://www.w3.org/2000/svg">
<path fill-rule="evenodd" clip-rule="evenodd" d="M4.67443 18.3332C4.70882 18.1757 4.66832 18.0118 4.56828 17.8855C3.09923 16.0303 1.99102 12.402 4.44145 9.04837C8.44474 3.56948 18.753 0.830058 20.4044 2.47374C22.0557 4.11742 20.4044 14.1785 13.799 18.3624C10.7755 20.2775 8.40154 20.2887 6.69219 19.5332C6.36815 19.39 5.97367 19.57 5.9362 19.9223C5.89048 20.352 5.86682 20.7944 5.86682 21.2501C5.86682 21.6643 5.53104 22.0001 5.11682 22.0001C4.70261 22.0001 4.36682 21.6643 4.36682 21.2501C4.36682 20.217 4.4749 19.2465 4.67443 18.3332ZM5.65259 9.93332C7.40146 7.53983 10.6577 5.62009 13.8061 4.50387C15.3598 3.95304 16.8022 3.62893 17.9083 3.53132C18.4643 3.48226 18.8858 3.49501 19.1714 3.54074C19.2794 3.55803 19.3657 3.63708 19.392 3.74327C19.3956 3.75769 19.3992 3.77284 19.4028 3.78873C19.468 4.07609 19.5094 4.49165 19.4982 5.03021C19.4758 6.10357 19.2484 7.50264 18.7686 9.0107C17.8012 12.051 15.9016 15.255 12.9964 17.0952C11.1008 18.2959 9.63549 18.5763 8.56703 18.4835C7.83611 18.4201 7.21423 18.1756 6.69662 17.8301C6.52369 17.7147 6.45858 17.495 6.52792 17.299C8.02733 13.0608 11.8596 10.232 15.7575 7.89323C16.1127 7.68012 16.2279 7.21943 16.0148 6.86424C15.8017 6.50906 15.341 6.39388 14.9858 6.60699C11.4884 8.70543 7.68886 11.3879 5.72055 15.3591C5.53508 15.7333 5.00874 15.7586 4.86592 15.3662C4.31118 13.8419 4.26643 11.8304 5.65259 9.93332Z" fill="black"/>
</svg>
